X:2272
T:Banks of Italy (?Manx) 
C:John Quayle, Gordon, Patrick
C:Traditional
O:Isle of Man 
Z:Clague Collection
B:Kiaull Vannin #272 
N:See KV #384
M:3/4
L:1/8  
K:D 
dee|f2 ed Bd|A3 Add|B4G2|F3 FGG|A3 Add|d3 e/f/ gf|(f2e2) e2|d3||

